static/img/kroki/e3772a25b8324dff2cf75a1890cec23b.svg

<?xml version="1.0" encoding="us-ascii" standalone="no"?><svg xmlns="http://www.w3.org/2000/svg" xmlns:xlink="http://www.w3.org/1999/xlink" contentStyleType="text/css" height="374px" preserveAspectRatio="none" style="width:247px;height:374px;" version="1.1" viewBox="0 0 247 374" width="247px" zoomAndPan="magnify"><defs/><g><!--class azure_storage_account--><g id="elem_azure_storage_account"><rect codeLine="23" fill="#3D176E" height="39.7891" id="azure_storage_account" rx="2.5" ry="2.5" style="stroke:#000D19;stroke-width:0.5;" width="233" x="7" y="328.58"/><ellipse cx="22" cy="348.4745" fill="#ADD1B2" rx="11" ry="11" style="stroke:#181818;stroke-width:1.0;"/><path d="M24.9688,354.1152 Q24.3906,354.412 23.75,354.5527 Q23.1094,354.7089 22.4063,354.7089 Q19.9063,354.7089 18.5781,353.0683 Q17.2656,351.412 17.2656,348.287 Q17.2656,345.162 18.5781,343.5058 Q19.9063,341.8495 22.4063,341.8495 Q23.1094,341.8495 23.75,342.0058 Q24.4063,342.162 24.9688,342.4589 L24.9688,345.1777 Q24.3438,344.5995 23.75,344.3339 Q23.1563,344.0527 22.5313,344.0527 Q21.1875,344.0527 20.5,345.1308 Q19.8125,346.1933 19.8125,348.287 Q19.8125,350.3808 20.5,351.4589 Q21.1875,352.5214 22.5313,352.5214 Q23.1563,352.5214 23.75,352.2558 Q24.3438,351.9745 24.9688,351.3964 L24.9688,354.1152 Z " fill="#000000"/><text fill="#D9B8FF" font-family="Helvetica" font-size="17" lengthAdjust="spacing" textLength="191" x="41" y="354.3598">azure_storage_account</text></g><!--class microsoft_resource--><g id="elem_microsoft_resource"><rect codeLine="26" fill="#3D176E" height="39.7891" id="microsoft_resource" rx="2.5" ry="2.5" style="stroke:#000D19;stroke-width:0.5;" width="200" x="23.5" y="167.79"/><ellipse cx="38.5" cy="187.6845" fill="#ADD1B2" rx="11" ry="11" style="stroke:#181818;stroke-width:1.0;"/><path d="M41.4688,193.3252 Q40.8906,193.622 40.25,193.7627 Q39.6094,193.9189 38.9063,193.9189 Q36.4063,193.9189 35.0781,192.2783 Q33.7656,190.622 33.7656,187.497 Q33.7656,184.372 35.0781,182.7158 Q36.4063,181.0595 38.9063,181.0595 Q39.6094,181.0595 40.25,181.2158 Q40.9063,181.372 41.4688,181.6689 L41.4688,184.3877 Q40.8438,183.8095 40.25,183.5439 Q39.6563,183.2627 39.0313,183.2627 Q37.6875,183.2627 37,184.3408 Q36.3125,185.4033 36.3125,187.497 Q36.3125,189.5908 37,190.6689 Q37.6875,191.7314 39.0313,191.7314 Q39.6563,191.7314 40.25,191.4658 Q40.8438,191.1845 41.4688,190.6064 L41.4688,193.3252 Z " fill="#000000"/><text fill="#D9B8FF" font-family="Helvetica" font-size="17" lengthAdjust="spacing" textLength="158" x="57.5" y="193.5698">microsoft_resource</text></g><!--class resource--><g id="elem_resource"><rect codeLine="29" fill="#3D176E" height="39.7891" id="resource" rx="2.5" ry="2.5" style="stroke:#000D19;stroke-width:0.5;" width="113" x="67" y="7"/><ellipse cx="82" cy="26.8945" fill="#ADD1B2" rx="11" ry="11" style="stroke:#181818;stroke-width:1.0;"/><path d="M84.9688,32.5352 Q84.3906,32.832 83.75,32.9727 Q83.1094,33.1289 82.4063,33.1289 Q79.9063,33.1289 78.5781,31.4883 Q77.2656,29.832 77.2656,26.707 Q77.2656,23.582 78.5781,21.9258 Q79.9063,20.2695 82.4063,20.2695 Q83.1094,20.2695 83.75,20.4258 Q84.4063,20.582 84.9688,20.8789 L84.9688,23.5977 Q84.3438,23.0195 83.75,22.7539 Q83.1563,22.4727 82.5313,22.4727 Q81.1875,22.4727 80.5,23.5508 Q79.8125,24.6133 79.8125,26.707 Q79.8125,28.8008 80.5,29.8789 Q81.1875,30.9414 82.5313,30.9414 Q83.1563,30.9414 83.75,30.6758 Q84.3438,30.3945 84.9688,29.8164 L84.9688,32.5352 Z " fill="#000000"/><text fill="#D9B8FF" font-family="Helvetica" font-size="17" lengthAdjust="spacing" textLength="71" x="101" y="32.7798">resource</text></g><!--reverse link microsoft_resource to azure_storage_account--><g id="link_microsoft_resource_azure_storage_account"><path codeLine="32" d="M123.5,225.84 C123.5,256.36 123.5,297.69 123.5,328.25 " fill="none" id="microsoft_resource-backto-azure_storage_account" style="stroke:#FFAF37;stroke-width:2.0;"/><polygon fill="none" points="123.5,207.84,117.5,225.84,129.5,225.84,123.5,207.84" style="stroke:#FFAF37;stroke-width:2.0;"/></g><!--reverse link resource to microsoft_resource--><g id="link_resource_microsoft_resource"><path codeLine="33" d="M123.5,65.05 C123.5,95.57 123.5,136.9 123.5,167.46 " fill="none" id="resource-backto-microsoft_resource" style="stroke:#FFAF37;stroke-width:2.0;"/><polygon fill="none" points="123.5,47.05,117.5,65.05,129.5,65.05,123.5,47.05" style="stroke:#FFAF37;stroke-width:2.0;"/></g><!--SRC=[XT1DRy8m30RWUtz59CwLO6WhbNO1f6cxe6diZapYG4GRLuux1Dl- -s2mARHyNEqdyMildK65PIKRLM8vHmv9M3bV0KEfXioq7bD1h3hMWkrdpUOJURa99b2YUiRY0yLfQ8htfTChZo6ekwWr0hrQCDNU7BuN1XzsBVGIgN418Gn5sCrhmIYCoUS3Qvko-McdRthP0xOOiK4-acwtQtfvazmSTNNlVp5rMrIz-6WJ4cp5R8tuLLTJxaKKihNeN_zYnbSmnlc5kezgRuTCx95FwjCb65hljOKYn6E282F9fi9nQolC1yPcP_7B9Ppe_UaKR6l6MH1YME0CjDv9KPz9ydq4fTDCWQpC60FLh37kdjREsCUlD4tFJqaQgFqw-G40]--></g></svg>

<svg xmlns="http://www.w3.org/2000/svg" width="247" height="374" viewBox="0 0 247 374"><rect width="233" height="39.789" x="7" y="328.58" fill="#3D176E" rx="2.5" ry="2.5" style="stroke:#000d19;stroke-width:.5"/><circle cx="22" cy="348.474" r="11" fill="#ADD1B2" style="stroke:#181818;stroke-width:1"/><path d="M24.969 354.115q-.578.297-1.219.438-.64.156-1.344.156-2.5 0-3.828-1.64-1.312-1.657-1.312-4.782t1.312-4.781q1.328-1.656 3.828-1.656.703 0 1.344.156.656.156 1.219.453v2.719q-.625-.579-1.219-.844-.594-.281-1.219-.281-1.343 0-2.031 1.078-.687 1.062-.687 3.156t.687 3.172q.688 1.062 2.031 1.062.625 0 1.219-.265.594-.281 1.219-.86z"/><text x="41" y="354.36" fill="#D9B8FF" font-family="Helvetica" font-size="17" textLength="191">azure_storage_account</text><rect width="200" height="39.789" x="23.5" y="167.79" fill="#3D176E" rx="2.5" ry="2.5" style="stroke:#000d19;stroke-width:.5"/><circle cx="38.5" cy="187.685" r="11" fill="#ADD1B2" style="stroke:#181818;stroke-width:1"/><path d="M41.469 193.325q-.578.297-1.219.438-.64.156-1.344.156-2.5 0-3.828-1.64-1.312-1.657-1.312-4.782t1.312-4.781q1.328-1.656 3.828-1.656.703 0 1.344.156.656.156 1.219.453v2.719q-.625-.578-1.219-.844-.594-.281-1.219-.281-1.343 0-2.031 1.078-.687 1.062-.687 3.156t.687 3.172q.688 1.062 2.031 1.062.625 0 1.219-.265.594-.281 1.219-.86z"/><text x="57.5" y="193.57" fill="#D9B8FF" font-family="Helvetica" font-size="17" textLength="158">microsoft_resource</text><rect width="113" height="39.789" x="67" y="7" fill="#3D176E" rx="2.5" ry="2.5" style="stroke:#000d19;stroke-width:.5"/><circle cx="82" cy="26.895" r="11" fill="#ADD1B2" style="stroke:#181818;stroke-width:1"/><path d="M84.969 32.535q-.578.297-1.219.438-.64.156-1.344.156-2.5 0-3.828-1.64-1.312-1.657-1.312-4.782t1.312-4.781q1.328-1.656 3.828-1.656.703 0 1.344.156.656.156 1.219.453v2.719q-.625-.578-1.219-.844-.594-.281-1.219-.281-1.344 0-2.031 1.078-.687 1.062-.687 3.156t.687 3.172q.688 1.062 2.031 1.062.625 0 1.219-.265.594-.281 1.219-.86z"/><text x="101" y="32.78" fill="#D9B8FF" font-family="Helvetica" font-size="17" textLength="71">resource</text><path fill="none" d="M123.5 225.84v102.41m0-120.41-6 18h12zm0-142.79v102.41m0-120.41-6 18h12z" style="stroke:#ffaf37;stroke-width:2"/></svg>
